X:1
T: Miss Stables Cook's Delight
C:Muriel A. Johnstone
R:Jig
%Q:180
K:G
M:6/8
L:1/16
d2|g2G2G2 B2A2G2|B2d2d2 e2d2B2|g2e2g2 e2d2B2|g2e2g2 a4b2|g2G2G2 B2A2G2|B2d2d2 e2d2B2|e2d2c2 d2g2B2|A2G2G2 G4f2|
g4G2 c2d2e2|d2g2B2 B2A2G2|d2g2B2 B2A2G2|e2d2B2 A4f2|g4G2 c2d2e2|d2g2B2 B2A2G2|e2d2c2 d2g2B2|A2B2c2 d2e2f2|
g4G2 c2d2e2|d2g2B2 d2g2B2|b2a2g2 e2g2e2|d2B2G2 A4B2|g4G2 c2d2e2|d2g2B2 B2A2G2|e2d2c2 d2g2B2|A2G2G2 G4d2|
g2G2G2 B2A2G2|B2d2d2 e2d2B2|g2e2g2 e2d2B2|g2e2g2 a4b2|g2G2G2 B2A2G2|B2d2d2 e2d2B2|e2d2c2 d2g2B2|A2G2G2 G4||
